X: 13
T:Mwynen Mon
T:The Melody of Mona
M:2/4
L:1/8
Q:240
C:Trad
S:51 Welsh Airs
R:March
A:Wales
H:From a facsimile c.1840: A Choice Collection of Fifty-One Welsh Airs
H:adapted for The Harp, Piano-Forte, Harpsichord,
H:Violin, or Flute by Edward Jones
H:"Harper to His Late Majesty King George IV, when
H:Prince of Wales".
Z:brian_martin12345@yahoo.com
K:Am
E|EA^GA|B>ABe|dcBA|^G>A B/c/d/B/|cA ^G>B|A3:||
G|(cd)ef|gedc|Bfdc|{c}B3d|(ed)c2|(dc)B2|
(cB) AA|^G^FEe|dcBA|^G>A B/c/d/B/|cAE^G|A3:||
